X:1
T: The Misses Cramb of Linlithgow
C:
R:Jig
Q:180
K:A
M:6/8
L:1/16
|:c2|e4e2 e4c2|A4A2 A4e2|d2e2f2 e2d2c2|B4e2e6|
e4e2 e4c2|A4A2 A4e2|a2g2f2 e4d2|c4A2 A4A2|
F4F2 F2G2A2|B4B2 B2c2d2|e2d2c2 e4c2|B4e2e6|
f4f2 f2e2d2|e4e2 e2d2c2|B2c2d2 E4e2|c4A2A4:|
